X: 1139
T: İftirâkınla Efendim...
C: Cevdet Çağla
O: Turkey
F: http://compmusic.upf.edu/node/140
N: nisaburek--sarki--musemmen--iftirakinla_efendim--cevdet_cagla
N: makam= nisaburek
N: form= sarki
N: usul= musemmen = 8/8
M: 8/8
L: 1/16
K: C ^9/8f ^3/4c ^3/4g 
Q: 1/4=132
%%MIDI tuningsystem comma53
A4 cde2 fga2 g2f2  | e4 fga2 bc'd'2 c'2b2  | \
w:  ARANAĞME  |   | 
a4 =gfe2 dcf2 e2d2  | 
w:   | 
c4 A2BA BcBA GFE2  | A4 cde2 fga2 g2f2  | \
w:   |  ARANAĞME  | 
e4 fga2 bc'd'2 c'2b2  | 
w:   | 
a4 =gfe2 dcf2 e2d2  | c4 A2BA BcA4z2  | \
w:   |   | 
A4 cde2 fga2 ^1/4g2f2  | 
w:  İf ti *  râ *  *  kın  | 
e2d2 c2e2 {=g}fee4z2  | f2e2 d2c2 A2B2 c2d2  | \
w:  la  *  e fen *  *  *  dim   |  ben *  de  tâ *  kat   | 
c4 A2B2 z2d2 c2B2  | 
w:  kal ma dı  ah   | 
A4 cde2 fga2 ^1/4g2f2  | e2d2 c2e2 {=g}fee4z2  | \
w:  İf ti *  râ *  *  kın  |  la  *  e fen *  *  *  dim   | 
f2e2 d2c2 A2B2 c2d2  | 
w:  ben *  de  tâ *  kat   | 
e2d2 fee4ef gab2  | b2a2 b2a2 =gfe4z2  | \
w:  kal *  ma *  dı   SAZ  |  Pâ *  re  pâ *  *  re   | 
e2f2 =gfe2 d2c2 B2c2  | 
w:  ol *  du  *  dil  *  aşk  | 
A4 B2B4B2 c2d2  | ed^c^3/4B d^3/4cc4d2 c2=B2  | \
w:  ta  mu hab bet   |  kal *  *  *  ma *  dı  ah    | 
c4 d2e2 {=g}fee4z2  | 
w:  Pâ re  pâ *  *  *  re   | 
e2f2 =gfe2 d2c2 B2c2  | A4 B2B3cBA GFE2  | \
w:  ol *  du  *  dil  *  aşk  |  ta  mu hab *  bet   | 
A2G2 BAA4A^B ^c^3/4de2  | 
w:  kal *  ma *  dı   SAZ  | 
^3/4d4 e2e4e2 f2a2  | g4 f2e3dc6  | edc_7/8B BAA4e2 f2g2  | 
w:  Ol  ka dar  ağ  |  lat tı  ben  *  bî  |  çâ *  *  *  re  *  yi  hükm_  | 
bagf fee4ef gba2  | g4 a2a4_7/8b2 a2g2  | \
w:  ü  *  *  *  ka *  za   SAZ  |  Ol  ka dar  ağ  | 
f2e2 d2e2 fee6  | 
w:  lat *  tı  ben  *  *  bî  | 
f2e2 d2c2 A2B2 c2d2  | e2d2 fee4ef gab2  | \
w:  çâ *  re  yi  *  hükm_  |  ü  *  ka *  za   SAZ  | 
b2a2 b2a2 =gfe4z2  | 
w:  Pâ *  re  pâ *  *  re   | 
e2f2 =gfe2 d2c2 B2c2  | A4 B2B4B2 c2d2  | \
w:  ol *  du  *  dil  *  aşk  |  ta  mu hab bet   | 
ed^c^3/4B d^3/4cc4d2 c2=B2  | 
w:  kal *  *  *  ma *  dı  ah    | 
c4 d2e2 {=g}fee4z2  | e2f2 =gfe2 d2c2 B2c2  | \
w:  Pâ re  pâ *  *  *  re   |  ol *  du  *  dil  *  aşk  | 
A4 B2B3cBA GFE2  | 
w:  ta  mu hab *  bet   | 
A2G2 BAA4z6  | |


